X: 1115
T: A Scotch Tune.
%R: march, reel
B: Henry Playford "Apollo's Banquet", London 1687 (5th Edition)
F: https://archive.org/details/apollosbanquetco01rugg
Z: 2017 John Chambers <jc:trillian.mit.edu>
M: C|
L: 1/8
K: Ador
% - - - - - - - - - -
FG |\
A2E2 E3D | C2 A,4 Bc | d2d2 A3G | F4 D2Bc |\
(dc)(BA) (BA)(GF) | (GF)(ED) (CD)(EC) | (DE)(FG) (AB)(GA) | F4 D2 :|
|: f2 |\
e3c ecAc | ecAc e3f | afdf afdf | abag fgaf |\
(ge)(ag) (fd)(gf) | ddcB cdec | defg ABGA | F4 D2 |]
% - - - - - - - - - -

%%sep 1 1 500
%%sep 1 1 500

